packages/kaspersky-hexa-ui-icons/src/iconsSVGs/24/TencentQq.svg

<svg width="24" height="24" viewBox="0 0 24 24" fill="none" xmlns="http://www.w3.org/2000/svg">
<path d="M11.0974 5.86166C11.127 6.22545 10.9238 6.54862 10.6443 6.58383C10.3642 6.61919 10.1135 6.35299 10.0838 5.9892C10.0545 5.62512 10.2574 5.30194 10.5365 5.26688C10.817 5.23123 11.0681 5.49787 11.0974 5.86166Z" fill="black"/>
<path d="M13.48 5.89433C13.2897 5.95896 13.1635 6.08182 13.1121 6.15207C13.0607 6.22245 12.9619 6.23789 12.8915 6.18655C12.821 6.13521 12.8055 6.03654 12.8569 5.96616C12.9404 5.85193 13.1171 5.68434 13.3784 5.59565C13.6456 5.50492 13.9894 5.50101 14.3902 5.70117C14.4683 5.74013 14.4999 5.83488 14.4609 5.9128C14.4219 5.99071 14.327 6.0223 14.249 5.98334C13.9208 5.81947 13.6644 5.83175 13.48 5.89433Z" fill="black"/>
<path fill-rule="evenodd" clip-rule="evenodd" d="M18.7 10.3263C18.7008 10.2987 18.7127 9.83388 18.7127 9.59427C18.7127 5.55693 16.7723 1.50015 12.0001 1.5C7.22781 1.50015 5.28722 5.55707 5.28722 9.59413C5.28722 9.83403 5.29913 10.2986 5.30002 10.3261L4.33681 12.6869C4.07291 13.3625 3.81256 14.0663 3.6217 14.6694C2.71143 17.5461 3.00642 18.7365 3.2309 18.7631C3.71274 18.8204 5.10618 16.5978 5.10618 16.5978C5.10618 17.8791 5.77447 19.5497 7.22097 20.7613C6.67892 20.9268 6.02149 21.1786 5.59722 21.4864C5.21045 21.7666 5.25879 22.0524 5.32841 22.1677C5.62109 22.6528 10.1586 22.5059 11.7989 22.3541C11.8447 22.3551 11.8907 22.3557 11.937 22.356H12.0631C12.1105 22.3557 12.1577 22.3551 12.2046 22.3541C13.8443 22.5059 18.3831 22.6529 18.6758 22.1677C18.7456 22.0524 18.7938 21.7666 18.4073 21.4864C17.982 21.1779 17.3227 20.9258 16.7802 20.7603C18.2259 19.5488 18.8938 17.8788 18.8938 16.5978C18.8938 16.5978 20.2874 18.8204 20.7692 18.7633C20.9935 18.7365 21.2885 17.546 20.3784 14.6694C20.1876 14.0661 19.9271 13.3627 19.6632 12.6871L18.7 10.3263ZM17.0818 13.3125C15.325 13.6547 13.5081 13.8508 12.0112 13.8331H11.9885C11.5904 13.8378 11.1696 13.8274 10.7334 13.8031V16.6278C9.25233 16.8306 7.77409 16.5378 7.77409 16.5378V13.4669C7.4897 13.4197 7.20528 13.3685 6.92241 13.3134C6.79248 14.1309 6.72022 15.1355 6.79193 16.3168C6.9877 19.5373 8.93513 21.5618 11.9411 21.591H12.0631C15.0693 21.5618 17.0166 19.5373 17.2126 16.3168C17.2844 15.1349 17.2119 14.1303 17.0818 13.3125ZM16.0854 8.76483C15.9126 8.38862 14.1701 7.96931 12.0132 7.96931H11.99C9.833 7.96931 8.09071 8.38862 7.91771 8.76498C7.90952 8.78172 7.9052 8.80003 7.90506 8.8186C7.90506 8.84577 7.91443 8.87003 7.92886 8.89106C8.07465 9.09955 10.0093 10.131 11.99 10.131H12.0132C13.9938 10.131 15.9285 9.09984 16.0743 8.89106C16.0896 8.86977 16.0979 8.84438 16.0981 8.81831C16.0979 8.79983 16.0936 8.78147 16.0854 8.76483ZM10.3041 7.4644C9.65671 7.49318 9.10362 6.76896 9.06881 5.84809C9.0337 4.92692 9.52967 4.15682 10.1771 4.12804C10.8237 4.09955 11.3767 4.82348 11.4118 5.74465C11.4472 6.66596 10.9511 7.43606 10.3041 7.4644ZM14.9355 5.84809C14.9008 6.76881 14.3477 7.49318 13.7003 7.4644C13.0532 7.43591 12.5573 6.66596 12.5927 5.74479C12.6278 4.82363 13.1806 4.0997 13.8274 4.12804C14.4748 4.15682 14.9707 4.92692 14.9355 5.84809Z" fill="black"/>
</svg>

<svg xmlns="http://www.w3.org/2000/svg" width="24" height="24" fill="none" viewBox="0 0 24 24"><path fill="#000" d="M11.097 5.862c.03.364-.174.687-.453.722-.28.035-.531-.231-.56-.595s.174-.687.453-.722c.281-.036.532.231.561.595m2.382.032c-.19.065-.316.188-.368.258a.158.158 0 0 1-.255-.186c.084-.114.26-.282.522-.37.267-.091.611-.095 1.012.106a.158.158 0 0 1 .071.212.158.158 0 0 1-.212.071c-.328-.164-.585-.151-.769-.089"/><path fill="#000" fill-rule="evenodd" d="M18.7 10.3263c.0008-.0276.0127-.4924.0127-.732 0-4.0374-1.9404-8.0942-6.7126-8.0943-4.7723.0002-6.7129 4.057-6.7129 8.0941 0 .24.012.7045.0128.732l-.9632 2.3608c-.2639.6756-.5242 1.3794-.7151 1.9825-.9103 2.8767-.6153 4.0671-.3908 4.0937.4818.0573 1.8753-2.1653 1.8753-2.1653 0 1.2813.6683 2.9519 2.1148 4.1635-.542.1655-1.1995.4173-1.6238.7251-.3868.2802-.3384.566-.2688.6813.2927.4851 4.8302.3382 6.4705.1864a9 9 0 0 0 .1381.0019h.1261a10 10 0 0 0 .1415-.0019c1.6397.1518 6.1785.2988 6.4712-.1864.0698-.1153.118-.4011-.2685-.6813-.4253-.3085-1.0846-.5606-1.6271-.7261 1.4457-1.2115 2.1136-2.8815 2.1136-4.1625 0 0 1.3936 2.2226 1.8754 2.1655.2243-.0268.5193-1.2173-.3908-4.0939-.1908-.6033-.4513-1.3067-.7152-1.9823zm-1.6182 2.9862c-1.7568.3422-3.5737.5383-5.0706.5206h-.0227a18.7 18.7 0 0 1-1.2551-.03v2.8247c-1.481.2028-2.9593-.09-2.9593-.09v-3.0709a31 31 0 0 1-.8517-.1535c-.13.8175-.2022 1.8221-.1305 3.0034.1958 3.2205 2.1432 5.245 5.1492 5.2742h.122c3.0062-.0292 4.9535-2.0537 5.1495-5.2742.0718-1.1819-.0007-2.1865-.1308-3.0043m-.9964-4.5477c-.1728-.3762-1.9153-.7955-4.0722-.7955H11.99c-2.157 0-3.8993.4193-4.0723.7957a.124.124 0 0 0-.0126.0536.127.127 0 0 0 .0238.0725c.1458.2085 2.0804 1.2399 4.0611 1.2399h.0232c1.9806 0 3.9153-1.0312 4.0611-1.24a.126.126 0 0 0 .0238-.0727.124.124 0 0 0-.0127-.0535m-5.7813-1.3004c-.6474.0288-1.2005-.6954-1.2353-1.6163-.0351-.9212.4609-1.6913 1.1083-1.72.6466-.0286 1.1996.6954 1.2347 1.6166.0354.9213-.4607 1.6914-1.1077 1.7197m4.6314-1.6163c-.0347.9207-.5878 1.645-1.2352 1.6163-.6471-.0285-1.143-.7984-1.1076-1.7196.0351-.9212.5879-1.6451 1.2347-1.6168.6474.0288 1.1433.799 1.1081 1.72" clip-rule="evenodd"/></svg>
